img/password.svg

<svg fill="#ffffff" height="800" viewBox="0 0 24 24" width="800" xmlns="http://www.w3.org/2000/svg">
    <path clip-rule="evenodd"
          d="m3.17157 5.17157c-1.17157 1.17158-1.17157 3.05719-1.17157 6.82843 0 3.7712 0 5.6569 1.17157 6.8284 1.17158 1.1716 3.05719 1.1716 6.82843 1.1716h4c3.7712 0 5.6569 0 6.8284-1.1716 1.1716-1.1715 1.1716-3.0572 1.1716-6.8284 0-3.77124 0-5.65685-1.1716-6.82843-1.1715-1.17157-3.0572-1.17157-6.8284-1.17157h-4c-3.77124 0-5.65685 0-6.82843 1.17157zm9.57863 4.82843c0-.41421-.3358-.75-.75-.75s-.75.33579-.75.75v.7012l-.6074-.3507c-.3587-.2071-.8174-.0842-1.02451.2745-.2071.3587-.0842.8174.27452 1.0245l.60689.3504-.60712.3506c-.35872.2071-.48163.6658-.27452 1.0245s.66584.4816 1.02454.2745l.6076-.3508v.7013c0 .4142.3358.75.75.75s.75-.3358.75-.75v-.7007l.6067.3502c.3587.2071.8174.0842 1.0245-.2745s.0842-.8174-.2745-1.0245l-.6072-.3506.607-.3504c.3587-.2071.4816-.6658.2745-1.0245s-.6658-.4816-1.0245-.2745l-.6065.3501zm-6.01754-.75c.41421 0 .75.33579.75.75v.7006l.60644-.3501c.35872-.2071.81741-.0842 1.02452.2745s.0842.8174-.27452 1.0245l-.60693.3504.60717.3506c.35872.2071.48162.6658.27452 1.0245-.20711.3587-.6658.4816-1.02452.2745l-.60668-.3502v.7007c0 .4142-.33579.75-.75.75-.41422 0-.75-.3358-.75-.75v-.7013l-.60766.3508c-.35872.2071-.81741.0842-1.02452-.2745s-.0842-.8174.27452-1.0245l.60717-.3506-.60694-.3504c-.35871-.2071-.48162-.6658-.27451-1.0245.2071-.3587.6658-.4816 1.02451-.2745l.60743.3507v-.7012c0-.41421.33578-.75.75-.75zm11.28544.75c0-.41421-.3358-.75-.75-.75s-.75.33579-.75.75v.7012l-.6075-.3507c-.3587-.2071-.8174-.0842-1.0245.2745s-.0842.8174.2745 1.0245l.607.3504-.6072.3506c-.3587.2071-.4816.6658-.2745 1.0245s.6658.4816 1.0245.2745l.6077-.3508v.7013c0 .4142.3358.75.75.75s.75-.3358.75-.75v-.7007l.6066.3502c.3588.2071.8175.0842 1.0246-.2745s.0842-.8174-.2746-1.0245l-.6071-.3506.6069-.3504c.3587-.2071.4816-.6658.2745-1.0245s-.6658-.4816-1.0245-.2745l-.6064.3501z"
          fill-rule="evenodd"/>
</svg>

<?xml version="1.0" encoding="UTF-8" standalone="no"?>
<svg width="100%" height="100%" viewBox="0 0 800 800" version="1.1" xmlns="http://www.w3.org/2000/svg"
     style="fill-rule:evenodd;clip-rule:evenodd;stroke-linejoin:round;stroke-miterlimit:2;">
    <g transform="matrix(25,0,0,25,100,100)">
        <path fill="black" d="M3.172,5.172C4.343,4 6.229,4 10,4L14,4C17.771,4 19.657,4 20.828,5.172C22,6.343 22,8.229 22,12C22,15.771 22,17.657 20.828,18.828C19.657,20 17.771,20 14,20L10,20C6.229,20 4.343,20 3.172,18.828C2,17.657 2,15.771 2,12C2,8.229 2,6.343 3.172,5.172ZM6.733,9.25C6.318,9.25 5.983,9.586 5.983,10L5.983,10.701L5.375,10.351C5.017,10.143 4.558,10.266 4.351,10.625C4.144,10.984 4.267,11.442 4.625,11.649L5.232,12L4.625,12.351C4.266,12.558 4.143,13.016 4.35,13.375C4.558,13.734 5.016,13.857 5.375,13.649L5.983,13.299L5.983,14C5.983,14.414 6.318,14.75 6.733,14.75C7.147,14.75 7.483,14.414 7.483,14L7.483,13.299L8.089,13.649C8.448,13.857 8.907,13.734 9.114,13.375C9.321,13.016 9.198,12.558 8.839,12.351L8.232,12L8.839,11.649C9.198,11.442 9.321,10.984 9.114,10.625C8.907,10.266 8.448,10.143 8.089,10.351L7.483,10.701L7.483,10C7.483,9.586 7.147,9.25 6.733,9.25ZM18.018,10C18.018,9.586 17.682,9.25 17.268,9.25C16.854,9.25 16.518,9.586 16.518,10L16.518,10.701L15.911,10.351C15.552,10.143 15.093,10.266 14.886,10.625C14.679,10.984 14.802,11.442 15.161,11.649L15.768,12L15.16,12.351C14.802,12.558 14.679,13.016 14.886,13.375C15.093,13.734 15.552,13.857 15.91,13.649L16.518,13.299L16.518,14C16.518,14.414 16.854,14.75 17.268,14.75C17.682,14.75 18.018,14.414 18.018,14L18.018,13.299L18.625,13.649C18.983,13.857 19.442,13.734 19.649,13.375C19.856,13.016 19.733,12.558 19.375,12.351L18.768,12L19.374,11.649C19.733,11.442 19.856,10.984 19.649,10.625C19.442,10.266 18.983,10.143 18.624,10.351L18.018,10.701L18.018,10ZM12.75,10C12.75,9.586 12.414,9.25 12,9.25C11.586,9.25 11.25,9.586 11.25,10L11.25,10.701L10.643,10.351C10.284,10.143 9.825,10.266 9.618,10.625C9.411,10.984 9.534,11.442 9.893,11.649L10.5,12L9.893,12.351C9.534,12.558 9.411,13.016 9.618,13.375C9.825,13.734 10.284,13.857 10.643,13.649L11.25,13.299L11.25,14C11.25,14.414 11.586,14.75 12,14.75C12.414,14.75 12.75,14.414 12.75,14L12.75,13.299L13.357,13.649C13.716,13.857 14.174,13.734 14.381,13.375C14.588,13.016 14.466,12.558 14.107,12.351L13.5,12L14.107,11.649C14.465,11.442 14.588,10.984 14.381,10.625C14.174,10.266 13.715,10.143 13.357,10.351L12.75,10.701L12.75,10Z"/>
    </g>
</svg>
